src/img/pulse_page/real_time_icon.svg

<svg width="470" height="390" viewBox="0 0 470 390" fill="none" xmlns="http://www.w3.org/2000/svg">
<g clip-path="url(#clip0_276_558)">
<path d="M133.006 37.2125V2.84375" stroke="#6C6C6C" stroke-width="3" stroke-miterlimit="10"/>
<path d="M144.625 2.84375V37.2125" stroke="#6C6C6C" stroke-width="3" stroke-miterlimit="10"/>
<path d="M145.682 254.394H131.057V387.993H145.682V254.394Z" fill="#A5A4A5"/>
<path d="M113.994 0.40625L91.2441 168.594" stroke="#EA5B2B" stroke-width="7" stroke-miterlimit="8"/>
<path d="M139.182 54.8438V376.594" stroke="#EA5B2B" stroke-width="4" stroke-miterlimit="8"/>
<path d="M74.75 168.269H141.944" stroke="#EA5B2B" stroke-width="7" stroke-miterlimit="8"/>
<path d="M101.887 168.269H80.1934V253.313H101.887V168.269Z" stroke="#EA5B2B" stroke-width="5" stroke-miterlimit="8"/>
<path d="M101.807 213.769H139.75" stroke="#EA5B2B" stroke-width="5" stroke-miterlimit="8"/>
<path d="M125.125 213.281L102.375 238.144" stroke="#EA5B2B" stroke-width="5" stroke-miterlimit="8"/>
<path d="M140.806 256.831H134.875V376.537H140.806V256.831Z" fill="#6C6C6C"/>
<path d="M139.1 55.9C137.928 55.8967 136.796 55.4787 135.904 54.7202C135.012 53.9616 134.417 52.9116 134.225 51.7563L132.193 38.2688C132.022 37.2591 132.174 36.2213 132.626 35.3025C133.078 34.3837 133.808 33.6306 134.712 33.15L137.068 31.9313C137.803 31.5662 138.614 31.3831 139.435 31.3972C140.255 31.4114 141.059 31.6224 141.781 32.0125L143.65 33.0688C144.494 33.5845 145.167 34.3371 145.586 35.2329C146.005 36.1287 146.151 37.128 146.006 38.1063L143.893 51.7563C143.719 52.9049 143.14 53.9535 142.262 54.7132C141.383 55.4729 140.261 55.8938 139.1 55.9Z" fill="#EA5B2B"/>
<path d="M143.081 95.8749C143.081 95.8749 144.056 135.281 152.75 135.281C161.444 135.281 158.6 61.5874 176.069 61.5874C203.694 61.5874 190.694 185.656 229.125 217.587C253.419 237.737 374.806 232.212 374.806 232.212" stroke="#6C6C6C" stroke-width="3" stroke-miterlimit="10"/>
<path d="M0 258.781H113.75V276.656H130.244V388.781H146.006V276.656H163.069V258.781H207.431V280.962H336.944V260.081H469.625" stroke="#6C6C6C" stroke-width="3" stroke-miterlimit="10"/>
<path d="M143.65 271.375H157.463V249.844H213.119V277.469" stroke="#A5A4A5" stroke-width="4" stroke-miterlimit="10"/>
<path d="M331.338 277.712V252.281H374.807" stroke="#A5A4A5" stroke-width="4" stroke-miterlimit="10"/>
<path d="M146.494 80.5188H132.682V96.2244H146.494V80.5188Z" fill="#EA5B2B"/>
<path d="M143 222.462C143 223.762 134.062 223.762 134.062 225.062C134.062 226.362 143 226.444 143 227.744C143 229.044 134.062 229.044 134.062 230.344C134.062 231.644 143 231.725 143 233.025C143 234.325 134.062 234.325 134.062 235.706C134.062 237.087 143 237.006 143 238.306C143 239.606 134.062 239.606 134.062 240.987C134.062 242.369 143 242.287 143 243.587C143 244.887 134.062 244.887 134.062 246.269C134.062 247.65 143 247.569 143 248.869C143 250.169 134.062 250.25 134.062 251.55C134.062 252.85 143 252.85 143 254.231C143 255.612 134.062 255.531 134.062 256.831" stroke="#6C6C6C" stroke-width="4" stroke-miterlimit="10"/>
<path d="M73.6934 254.394H139.668" stroke="#EA5B2B" stroke-width="7" stroke-miterlimit="8"/>
<path d="M163.719 0.40625L186.469 168.594" stroke="#EA5B2B" stroke-width="7" stroke-miterlimit="8"/>
<path d="M202.962 168.269H135.85" stroke="#EA5B2B" stroke-width="7" stroke-miterlimit="8"/>
<path d="M204.1 254.394H138.044" stroke="#EA5B2B" stroke-width="7" stroke-miterlimit="8"/>
<path d="M175.906 253.337H197.6V168.293H175.906V253.337Z" stroke="#EA5B2B" stroke-width="5" stroke-miterlimit="8"/>
<path d="M175.907 213.769H137.963" stroke="#EA5B2B" stroke-width="5" stroke-miterlimit="8"/>
<path d="M152.588 213.281L175.338 238.144" stroke="#EA5B2B" stroke-width="5" stroke-miterlimit="8"/>
<path d="M146.006 212.469H132.193V222.763H146.006V212.469Z" fill="#EA5B2B"/>
<path d="M460.444 224.087H377V256.587H460.444V224.087Z" stroke="#EA5B2B" stroke-width="5" stroke-miterlimit="8"/>
<path d="M451.994 212.469H428.838V220.188H451.994V212.469Z" fill="#EA5B2B"/>
<path d="M451.182 246.188V228.312H429.244V241.15H421.525V246.106L399.425 246.025V241.313H390.082V246.025H381.307V252.281L455.894 252.444V246.188H451.182Z" fill="#EA5B2B"/>
<path d="M209.869 263.006C217.588 263.006 217.588 267.638 225.388 267.638C233.188 267.638 233.188 263.006 240.907 263.006C248.625 263.006 248.707 267.638 256.507 267.638C264.307 267.638 264.225 263.006 272.025 263.006C279.825 263.006 279.744 267.638 287.544 267.638C295.344 267.638 295.344 263.006 303.063 263.006C310.782 263.006 310.863 267.638 318.663 267.638C326.463 267.638 326.382 263.006 334.182 263.006" stroke="#A5A4A5" stroke-width="2" stroke-miterlimit="10"/>
</g>
<defs>
<clipPath id="clip0_276_558">
<rect width="469.625" height="390" fill="white"/>
</clipPath>
</defs>
</svg>

<svg width="470" height="390" fill="none" xmlns="http://www.w3.org/2000/svg"><g clip-path="url(#clip0_276_558)"><path d="M133.006 37.212V2.844m11.619 0v34.368" stroke="#6C6C6C" stroke-width="3" stroke-miterlimit="10"/><path d="M145.682 254.394h-14.625v133.599h14.625V254.394z" fill="#A5A4A5"/><path d="M113.994.406l-22.75 168.188" stroke="#EA5B2B" stroke-width="7" stroke-miterlimit="8"/><path d="M139.182 54.844v321.75" stroke="#EA5B2B" stroke-width="4" stroke-miterlimit="8"/><path d="M74.75 168.269h67.194" stroke="#EA5B2B" stroke-width="7" stroke-miterlimit="8"/><path d="M101.887 168.269H80.193v85.044h21.694v-85.044zm-.08 45.5h37.943m-14.625-.488l-22.75 24.863" stroke="#EA5B2B" stroke-width="5" stroke-miterlimit="8"/><path d="M140.806 256.831h-5.931v119.706h5.931V256.831z" fill="#6C6C6C"/><path d="M139.1 55.9a4.954 4.954 0 01-4.875-4.144l-2.032-13.487a4.876 4.876 0 012.519-5.119l2.356-1.219a5.12 5.12 0 014.713.082l1.869 1.056a5.036 5.036 0 012.356 5.037l-2.113 13.65A4.877 4.877 0 01139.1 55.9z" fill="#EA5B2B"/><path d="M143.081 95.875s.975 39.406 9.669 39.406 5.85-73.694 23.319-73.694c27.625 0 14.625 124.069 53.056 156 24.294 20.15 145.681 14.625 145.681 14.625M0 258.781h113.75v17.875h16.494v112.125h15.762V276.656h17.063v-17.875h44.362v22.181h129.513v-20.881h132.681" stroke="#6C6C6C" stroke-width="3" stroke-miterlimit="10"/><path d="M143.65 271.375h13.813v-21.531h55.656v27.625m118.219.243v-25.431h43.469" stroke="#A5A4A5" stroke-width="4" stroke-miterlimit="10"/><path d="M146.494 80.519h-13.812v15.705h13.812V80.52z" fill="#EA5B2B"/><path d="M143 222.462c0 1.3-8.938 1.3-8.938 2.6s8.938 1.382 8.938 2.682-8.938 1.3-8.938 2.6 8.938 1.381 8.938 2.681-8.938 1.3-8.938 2.681 8.938 1.3 8.938 2.6-8.938 1.3-8.938 2.681c0 1.382 8.938 1.3 8.938 2.6s-8.938 1.3-8.938 2.682c0 1.381 8.938 1.3 8.938 2.6s-8.938 1.381-8.938 2.681 8.938 1.3 8.938 2.681-8.938 1.3-8.938 2.6" stroke="#6C6C6C" stroke-width="4" stroke-miterlimit="10"/><path d="M73.693 254.394h65.975M163.719.406l22.75 168.188m16.493-.325H135.85m68.25 86.125h-66.056" stroke="#EA5B2B" stroke-width="7" stroke-miterlimit="8"/><path d="M175.906 253.337H197.6v-85.044h-21.694v85.044zm.001-39.568h-37.944m14.625-.488l22.75 24.863" stroke="#EA5B2B" stroke-width="5" stroke-miterlimit="8"/><path d="M146.006 212.469h-13.813v10.294h13.813v-10.294z" fill="#EA5B2B"/><path d="M460.444 224.087H377v32.5h83.444v-32.5z" stroke="#EA5B2B" stroke-width="5" stroke-miterlimit="8"/><path d="M451.994 212.469h-23.156v7.719h23.156v-7.719zm-.812 33.719v-17.876h-21.938v12.838h-7.719v4.956l-22.1-.081v-4.712h-9.343v4.712h-8.775v6.256l74.587.163v-6.256h-4.712z" fill="#EA5B2B"/><path d="M209.869 263.006c7.719 0 7.719 4.632 15.519 4.632s7.8-4.632 15.519-4.632c7.718 0 7.8 4.632 15.6 4.632s7.718-4.632 15.518-4.632c7.8 0 7.719 4.632 15.519 4.632s7.8-4.632 15.519-4.632 7.8 4.632 15.6 4.632 7.719-4.632 15.519-4.632" stroke="#A5A4A5" stroke-width="2" stroke-miterlimit="10"/></g><defs><clipPath id="clip0_276_558"><path fill="#fff" d="M0 0h469.625v390H0z"/></clipPath></defs></svg>
